16x16/apps/quake2.svg

<svg height="16" width="16" xmlns="http://www.w3.org/2000/svg"><circle cx="8.5" cy="7.5" fill="#4f4f4f" r="7.5"/><g fill="#86c14d"><path d="m6.625 3.416a4.5 4.5 0 0 0 -2.625 4.084 4.5 4.5 0 0 0 4.5 4.5 4.5 4.5 0 0 0 4.5-4.5 4.5 4.5 0 0 0 -2.625-4.08v.049a4 4 0 0 1 2.125 3.531 4 4 0 0 1 -4 4 4 4 0 0 1 -4-4 4 4 0 0 1 2.125-3.53z"/><path d="m6 8 1 .75v4.875l.5 2.375.5-2.375v-4.875l1-.75h-2.25z"/><path d="m8 8 1 .75v4.875l.5 2.375.5-2.375v-4.875l1-.75h-2.25z"/></g></svg>

<svg xmlns="http://www.w3.org/2000/svg" width="16" height="16"><circle style="fill:#4f4f4f" cx="8.5" cy="7.5" r="7.5"/><path style="fill:#86c14d" d="M6.625 3.416A4.5 4.5 0 0 0 4 7.5 4.5 4.5 0 0 0 8.5 12 4.5 4.5 0 0 0 13 7.5a4.5 4.5 0 0 0-2.625-4.08v.049A4 4 0 0 1 12.5 7a4 4 0 0 1-4 4 4 4 0 0 1-4-4 4 4 0 0 1 2.125-3.53z"/><path style="fill:#86c14d" d="m6 8 1 .75v4.875L7.5 16l.5-2.375V8.75L9 8H6.75z"/><path style="fill:#86c14d" d="m8 8 1 .75v4.875L9.5 16l.5-2.375V8.75L11 8H8.75z"/></svg>
